X: 19
T: The Monmouth __ or the Victory.
R: reel
M: C
L: 1/8
Z: 2010 John Chambers <jc:trillian.mit.edu> (tune)
Z: 2015 John Chambers <jc:trillian.mit.edu> (dance)
S: http://archive.org/details/imslp-american-country-dances-1785-various
S: http://imslp.org/wiki/24_American_Country_Dances_(Cantelo,_Hezekiah)
B: Cantelo ed. "Twenty Four American Country Dances", London 1785 (Longman & Broderip)
N: The fermata at the end of the 2nd part is a bit odd.
K: Bb
% - - - - - - - - - - - - - - - - - - - - - - - - - - - - -
V: 1
|: [f2B2d2]dB [f2B2d2]dB | g>abg .f.d.c.B | [f2B2d2]dB [f2B2d2]dB | g>fed Td2c2 :|
|: .F.B.A.B .F.B.A.B | F>Ace dBAB | B>dfb b>gfe | d2Tc2 B4 :|
|: F=EE2 _EDD2 | D>B,F>D D2C2 | G,>A,B,C .D.E.F.G | D2TC2 B,4 :|
% - - - - - - - - - - - - - - - - - - - - - - - - - - - - -
V: 2 clef=bass middle=d
|: [b2f2d2B2]z2 [b2f2d2B2]z2 | [e2E2]z2 b2B2 | [b2f2d2B2]z2 [b2f2d2B2]z2 | e2B2 f2F2 :|
|: [b2f2d2B2]z2 [b2f2d2B2]z2 | a2f2 b2B2 | d4 e4 | f2F2 HBfdB :|
|: f2ga b2B2 | B2de f2F2 | [e2E2]z2 Bcde | f2F2 B4 :|
% - - - - - - - - - - Dance description - - - - - - - - - -
%%begintext align
%% Hands across & back again -- lead down the middle up again & cast
%% off -- right & left -- Ballance & turn your partner - Ditto Ditto --
%%endtext

%%sep 2 1 500

